X: 04071
T: Da Shaalds o' Foula
O: Shetland
R: jig
B: RSCDS 4-7
Z: 1997 by John Chambers <jc:trillian.mit.edu>
N: Suitable Pipe Tunes "The Rock and the wee pickle Tow" "Daft Donald".
M: 6/8
L: 1/8
%--------------------
K: Em
D \
|: "Em"E2G G2e | edB BAB | "G"G2B A2B | "C"G2A "D"GED \
|  "Em"E2G G2e | edB BAB | "G"G2B A2B | "D"d3 D3 :|
|: "Em"edB ABd | edB BAG | "G"g2B A2B | "C"G2A "D"GED \
|  "Em"edB ABd | edB BAG | "G"g2B A2B | "D"d3 D3 :|
%%center Book04/04071-Da_Shaalds_o_Foula-1.abc

%%sep 1 1 500
%%sep 1 1 500

